icon/pk/thermos-cup.svg

<svg viewBox="0 0 48 48" fill="none" xmlns="http://www.w3.org/2000/svg" height="1em" width="1em">
  <path d="M10 31C10 31 10.0714 37 24 37C37.9286 37 38 31 38 31V15H24H10V31Z" fill="#2F88FF" stroke="black" stroke-width="4" stroke-linejoin="round"/>
  <path d="M24 4V10" stroke="black" stroke-width="4" stroke-linecap="round" stroke-linejoin="round"/>
  <path d="M16 5V9" stroke="black" stroke-width="4" stroke-linecap="round" stroke-linejoin="round"/>
  <path d="M32 5V9" stroke="black" stroke-width="4" stroke-linecap="round" stroke-linejoin="round"/>
  <path d="M14 36V41C14 42.1046 14.8954 43 16 43H32C33.1046 43 34 42.1046 34 41V36" stroke="black" stroke-width="4" stroke-linecap="round" stroke-linejoin="round"/>
</svg>

<svg width="48" height="48" fill="none" xmlns="http://www.w3.org/2000/svg"><path d="M10 31s.071 6 14 6 14-6 14-6V15H10v16Z" fill="#2F88FF" stroke="#000" stroke-width="4" stroke-linejoin="round"/><path d="M24 4v6M16 5v4M32 5v4M14 36v5a2 2 0 0 0 2 2h16a2 2 0 0 0 2-2v-5" stroke="#000" stroke-width="4" stroke-linecap="round" stroke-linejoin="round"/></svg>
